X: 1695
T: Ma Seal's Set Tune
B: australian traditional tunes wiki
M:2/4
L:1/16
R: Set Tune
Q: 1/4=100
K:G
V:1 
|:(3BdB AB c2BB|A2(3BdB G2FG|A2D2 AAD2|G2GA B3A|
|(3BdB AB c2BB|A2(3BdB G2FG|A3D AAD2|G2G>A G3A|
G2BB d2e2|d2BB B2(3dBA|G2BB d2e2|d2B2 A3B|
D2E2 FFG2|A2B2 c3E|1BBE2 B3A|G4- G4:|2cc (3BdB E2F2|G6||
% abcbook-tune_id 6342d53ab92b89c9da9a82d1


% abcbook-boost 0
% abcbook-tablature 
% abcbook-transpose 
% abcbook-lastupdated 1665324378416
% abcbook-soundfonts 
% abcbook-repeats 1


